X:342
T:Polka
S:Padraig O'Keeffe MS, via 'Music from Sliabh Luachra'
R:Polka
Z:Nigel Gatherer
L:1/8
M:2/4
K:G
A|Bd ce|d/e/g/a/ bg/e/|dB AG/A/|BG G:|
d|e2 e2|e/d/e/f/ g2|B/A/B/c/ dc|B/A/B/c/ d2|
e2 ed|eg fe|dB BA/B/|c2 B|]
<end>
<start>
